X: 34165
T: Reel Jacqueline
R: reel
M: 4/4
K: Aminor
|:A2c2 e2a2|fedf ecAc|B2c2 d2e2|~B3d edcB|
A2 (3cBc (3ece a2|fedf ecAc|eagf edcB|1 A2E2 F2E2:|2 A2G2 A2B2||
c2ce agfe|d2Bd g2ge|cAAc edcB|A2c2 e2a2|
A2FA cBAc|BAAB edcB|c2c2 dcd2|e2ef edcd|
e2ce agfe|d2Bd g2ge|cAAc edcB|A2c2 e2a2|
A2FA cBAc|BAAB edcd|edce dcBc|A4- A2E2||

